X:1
T:Herr Gott Vater, LM
T:Herr Gott Vater, LM
T:Melody by Samuel Besler (1574-1625)
T:Public Domain Courtesy of the Cyber Hymnal™
C:Melody by Samuel Besler (1574-1625)
Z:Public Domain
Z:Courtesy of the Cyber Hymnal™
%%score ( 1 2 ) ( 3 4 )
L:1/8
Q:1/4=115
M:3/4
K:Eb
V:1 treble 
V:2 treble 
V:3 bass 
V:4 bass 
V:1
 [B,E]2 [A,E]2 [B,E]2 | [CF]4 [B,F]2 | [EG]4 [EA]2 | B6 | [EB]2 [EB]2 [EG]2 | [Ec]4 [Ad]2 | %6
 ([Ge]3 [Fd]) [Ec]2 | B6 | [EB]2 [Cc]2 [DB]2 | [EG]4 [EB]2 | A4 [EG]2 | [DF]4 [EG]2 | %12
 ([FB]2 [EG]2) [FA]2 | ([EG]2 FE) [CF]2 | (E4 DC) | [B,D]6 | [B,E]6 |] %17
V:2
 x6 | x6 | x6 | (E4 D2) | x6 | x6 | x6 | (E4 D2) | x6 | x6 | (C2 F2) x2 | x6 | x6 | x2 B,2 x2 | %14
 B,6 | x6 | x6 |] %17
V:3
 [E,G,]2 [^D,G,]2 [E,G,]2 | [E,A,]4 [D,B,]2 | [C,G,]4 F,2 | F,6 | [G,,B,]2 [G,,B,]2 [C,C]2 | %5
 ([A,C]3 [G,B,]) [F,A,]2 | [E,B,]4 [F,=A,]2 | [B,,B,]6 | [G,B,]2 A,2 [G,B,]2 | [C,C]4 [G,B,]2 | %10
 ([F,C]3 [G,B,]) [A,C]2 | [B,D]4 [E,B,]2 | B,4 [F,,C]2 | [G,,B,]4 [A,,A,]2 | (G,4 F,E,) | %15
 (F,4 A,2) | [E,G,]6 |] %17
V:4
 x6 | x6 | x4 F,2 | (B,,4 A,,2) | x6 | x6 | x6 | x6 | x2 A,2 x2 | x6 | x6 | x6 | (D,2 E,2) x2 | %13
 x6 | B,,6 | B,,6 | x6 |] %17

